static/assets/template/assets/img/icons/clothing/beanie.svg

<svg viewBox="0 0 108 108" xmlns="http://www.w3.org/2000/svg"><path d="m104 82a4 4 0 0 0 -4-4h-92a4 4 0 0 0 -4 4v18a4 4 0 0 0 4 4h92a4 4 0 0 0 4-4zm-4-32.46a45.54 45.54 0 0 0 -45.54-45.54h-2a44.47 44.47 0 0 0 -44.46 44.46v25.54h92zm0 58.46h-92a8 8 0 0 1 -8-8v-18a8 8 0 0 1 4.14-7 4.09 4.09 0 0 1 -.14-1v-25.54a48.52 48.52 0 0 1 48.46-48.46h2a49.59 49.59 0 0 1 49.54 49.54v24.46a4.09 4.09 0 0 1 -.14 1 8 8 0 0 1 4.14 7v18a8 8 0 0 1 -8 8z" fill-rule="evenodd"/></svg>

<svg xmlns="http://www.w3.org/2000/svg" viewBox="0 0 108 108"><defs><style>.cls-1{fill-rule:evenodd;}</style></defs><title>beanie</title><g id="Layer_2" data-name="Layer 2"><g id="Layer"><path class="cls-1" d="M104,82a4,4,0,0,0-4-4H8a4,4,0,0,0-4,4v18a4,4,0,0,0,4,4h92a4,4,0,0,0,4-4Zm-4-32.46A45.54,45.54,0,0,0,54.46,4h-2A44.47,44.47,0,0,0,8,48.46V74h92ZM100,108H8a8,8,0,0,1-8-8V82a8,8,0,0,1,4.14-7A4.09,4.09,0,0,1,4,74V48.46A48.52,48.52,0,0,1,52.46,0h2A49.59,49.59,0,0,1,104,49.54V74a4.09,4.09,0,0,1-.14,1A8,8,0,0,1,108,82v18A8,8,0,0,1,100,108Z"/></g></g></svg>
